src/images/single-assets/GUARD.svg

<?xml version="1.0" encoding="UTF-8"?>
<svg width="30px" height="30px" viewBox="0 0 30 30" version="1.1" xmlns="http://www.w3.org/2000/svg" xmlns:xlink="http://www.w3.org/1999/xlink">
    <title>切片</title>
    <defs>
        <linearGradient x1="0%" y1="23.8981956%" x2="90.8234459%" y2="30.0528327%" id="linearGradient-1">
            <stop stop-color="#2167EC" offset="0%"></stop>
            <stop stop-color="#1457D8" offset="100%"></stop>
        </linearGradient>
    </defs>
    <g id="页面-1" stroke="none" stroke-width="1" fill="none" fill-rule="evenodd">
        <g id="02保险-我发布的保险" transform="translate(-1458.000000, -24.000000)">
            <g id="编组-8" transform="translate(1458.000000, 24.000000)">
                <g id="编组-11" fill="url(#linearGradient-1)">
                    <circle id="椭圆形" cx="15" cy="15" r="15"></circle>
                </g>
                <path d="M15,6.75 C19.1007143,6.75 22.4327643,9.9614065 22.4989952,13.9474906 L22.5,14.0685156 L22.5,21.9984834 L16.0552778,23.25 L16.0555556,19.777452 L16.0563568,19.7022078 C16.1000363,17.6529703 17.9240465,15.9985963 20.1858467,15.954844 L20.2777778,15.9539557 L20.2777778,14.0422074 L19.8642288,13.9666368 C16.7708864,13.4013689 13.5995473,13.3804215 10.5000174,13.9040275 L10.2267196,13.9516413 L9.72222222,14.0422074 L9.72222222,15.9539557 L9.80950994,15.9547565 C12.0424436,15.995763 13.8498113,17.606522 13.9408467,19.6181607 L13.9436432,19.7022078 L13.9441667,19.7522917 L13.9441667,23.2475605 L7.5,21.9984834 L7.5,14.0685156 L7.50100478,13.9474906 C7.56723572,9.9614065 10.8992857,6.75 15,6.75 Z" id="路径" fill="#FFFFFF" fill-rule="nonzero"></path>
            </g>
        </g>
    </g>
</svg>

<svg xmlns="http://www.w3.org/2000/svg" width="30" height="30"><defs><linearGradient id="a" x1="0%" x2="90.823%" y1="23.898%" y2="30.053%"><stop offset="0%" stop-color="#2167EC"/><stop offset="100%" stop-color="#1457D8"/></linearGradient></defs><g fill="none" fill-rule="evenodd"><circle cx="15" cy="15" r="15" fill="url(#a)"/><path fill="#FFF" fill-rule="nonzero" d="M15 6.75c4.1 0 7.433 3.211 7.499 7.197l.001.122v7.93l-6.445 1.251v-3.473l.001-.075c.044-2.049 1.868-3.703 4.13-3.747l.092-.001v-1.912l-.414-.075a27 27 0 0 0-9.364-.063l-.273.048-.505.09v1.912h.088c2.232.042 4.04 1.653 4.13 3.664l.004.084v3.546L7.5 21.998v-7.93l.001-.12C7.567 9.96 10.899 6.75 15 6.75"/></g></svg>
